X: 10211
Q: "Lively."
M: 6/8
L: 1/8
K: Bb
[|\
e |\
(dc)B {B}A2G | F2F F2e | (dc)B A2F | G3 e2e |\
(dc)B {B}A2G | F2F F2HyF | (de)f F2{G}A | B3 B2"^D.C."F |]


